!!!COM: Bach, Johann Sebastian
!!!OPR: Joh. Seb. Bachs vierstimmige Choralgesänge
!!!XEN: Four-part Chorales
!!!OTL: Chorale 79. Herr Jesu Christ, dich zu uns wend'
!!!SCT: BWV 332
!!!SCA: Thematisch-systematisches Verzeichnis der musikalischen Werke Johann Sebastian Bach: Bach-Werke-Verzeichnis (Schmieder)
!!!YOR: Bach Gesellschaft Edition xxxix
!!!ENC: Steven Rasmussen
!!!CDT: 1685/3//-1750/7/28/
!!!OCY: Deutschland
!!!YEC: Copyright (c) 1994, 2000 Center for Computer Assisted Research in the Humanities
!!!YEM: Rights to all derivative editions reserved
!!!YEN: United States of America
**kern	**silbe	**kern	**silbe	**kern	**kern	**silbe
*I:[BASSO]	*I:[BASSO]	*I:[TENORE]	*I:[TENORE]	*I:[ALTO]	*I:[SOPRANO]	*I:[SOPRANO]
*clefF4	*	*clefGv2	*	*clefG2	*clefG2	*
*k[f#]	*	*k[f#]	*	*k[f#]	*k[f#]	*
*G:	*	*G:	*	*G:	*G:	*
*M4/4	*	*M4/4	*	*M4/4	*M4/4	*
4GG	.	4B	.	4d	4g	Herr
=1	=1	=1	=1	=1	=1	=1
4GG	.	4d	.	4g	4b	Je-
4FF#	.	4d	.	4a	4dd	-su
8GGL	.	4d	.	(8a	4b	Christ,
8BBJ	.	.	.	4g)	.	.
4D	.	4d	.	.	4a	dich
.	.	.	.	8f#	.	.
=2	=2	=2	=2	=2	=2	=2
8GL	.	4d	.	4g	4b	zu
8F#J	.	.	.	.	.	.
4E	.	4e	.	4g	4cc#	uns
4D;	.	4A;	.	4f#;	4dd;	wend',
8AL	.	4c	.	4a	4ee	dein'n
8GJ	.	.	.	.	.	.
=3	=3	=3	=3	=3	=3	=3
4F#	.	4d	.	4.a	8ddL	heil'-
.	.	.	.	.	8ccJ	.
4G	.	4d	.	.	4b	-gen
.	.	.	.	8g	.	.
8C#L	.	(8e	.	8gL	4a	Geist
8D#J	.	4B)	.	8f#J	.	.
8EL	du	.	.	8eL	8gL	du
8F#J	.	[8A	du	8dJ	8aJ	.
=4	=4	=4	=4	=4	=4	=4
4G	zu	8A]	.	4d	4b	zu
.	.	4G	zu	.	.	.
4D	uns	.	.	4d	4a	uns
.	.	8F#	uns	.	.	.
4GG;	.	4B;	.	4d;	4g;	send',
4D	.	4d	.	4f#	4a	mit
=5	=5	=5	=5	=5	=5	=5
8GGL	.	4d	.	4g	4b	Hülf'
8AAJ	.	.	.	.	.	.
8BBL	.	4d	.	4g	4b	und
8C#J	.	.	.	.	.	.
8DL	.	4d	.	4g	4a	Gnad',
8EJ	.	.	.	.	.	.
8F#L	.	8AL	.	4f#	4dd	Herr,
8BJ	.	8dJ	.	.	.	.
=6	=6	=6	=6	=6	=6	=6
8GL	.	8BL	.	4e	4dd	uns
8EJ	.	8GJ	.	.	.	.
8AL	.	4A	.	4e	4cc#	re-
8AAJ	.	.	.	.	.	.
4D;	.	4A;	.	4f#;	4dd;	-gier'
8GL	.	4G	.	4d	4b	und
8FnJ	.	.	.	.	.	.
=7	=7	=7	=7	=7	=7	=7
8EL	.	8GL	.	4e	4cc	uns
8F#J	.	8AJ	.	.	.	.
4G	.	4B	.	8dL	4b	den
.	.	.	.	8gJ	.	.
8C#L	.	8eL	.	(8g	4a	Weg
8D#J	.	8BJ	.	4f#)	.	.
4E	.	4B	.	.	4g	zur
.	.	.	.	8e	.	.
=8	=8	=8	=8	=8	=8	=8
8BBL	.	4B	.	4d	4g	Wahr-
8CJ	.	.	.	.	.	.
4D	.	4A	.	4d	4f#	-heit
4GG;	.	4B;	.	4d;	4g;	führ'.
==|!	==|!	==|!	==|!	==|!	==|!	==|!
*-	*-	*-	*-	*-	*-	*-
!!!RWG: Key is interpreted using the Humdrum key tool.
!!!URL-pdf: https://s9.imslp.org/files/imglnks/usimg/6/6b/IMSLP24489-PMLP09471-CCARH_Bach_Chorales.pdf#page=79 Musedata edition
!!!URL-pdf: https://s9.imslp.org/files/imglnks/usimg/7/7a/IMSLP04155-Bach_-_BGA_253-438.pdf#page=43 	Bach-Gesellschaft Ausgabe, Band 39 (pp.175-276) Leipzig: Breitkopf und Härtel, 1892. Plate B.W. XXXIX.
!!!END: 1994/06/08
!!!EMD: Converted from MuseData to Humdrum Dec 19, 2000, by Andreas Kornstaedt using muse2kern.
!!!EED: Craig Stuart Sapp
!!!EEV: 2024/03/31
!!!filter-keyboard: satb2gs
!!!title: @{OTL} (@{SCT})
